public/library/pancakeswap-text-dark.svg

<svg width="286" height="61" viewBox="0 0 286 61" fill="none" xmlns="http://www.w3.org/2000/svg">
<mask id="mask0_304_181" style="mask-type:luminance" maskUnits="userSpaceOnUse" x="10" y="10" width="266" height="41">
<path d="M275.609 10H10V51H275.609V10Z" fill="white"/>
</mask>
<g mask="url(#mask0_304_181)">
<path d="M61.2169 41.5427C60.5992 41.5427 60.1625 41.4156 59.9069 41.1618C59.6726 40.9077 59.5555 40.5056 59.5555 39.9553V21.5731C59.5555 21.0228 59.6832 20.6207 59.9388 20.3667C60.1944 20.0915 60.6203 19.954 61.2169 19.954H69.0447C72.0268 19.954 74.2207 20.5783 75.6267 21.8271C77.0325 23.0759 77.7354 24.9384 77.7354 27.4148C77.7354 29.87 77.0325 31.7219 75.6267 32.9707C74.2421 34.1984 72.0482 34.8121 69.0447 34.8121H66.0095V39.9553C66.0095 40.5056 65.8818 40.9077 65.626 41.1618C65.3704 41.4156 64.9338 41.5427 64.3161 41.5427H61.2169ZM68.5337 30.2086C69.407 30.2086 70.0779 29.9758 70.5466 29.5102C71.0364 29.0446 71.2814 28.3461 71.2814 27.4148C71.2814 26.4624 71.0364 25.7533 70.5466 25.2876C70.0779 24.822 69.407 24.5892 68.5337 24.5892H66.0095V30.2086H68.5337Z" fill="#FFFFFF"/>
<path d="M85.2809 42.0188C83.2788 42.0188 81.6706 41.3838 80.4564 40.1141C79.2635 38.8228 78.6673 37.0133 78.6673 34.685C78.6673 32.9072 79.072 31.3514 79.8812 30.0181C80.7121 28.6846 81.873 27.6581 83.364 26.9385C84.8764 26.1977 86.6123 25.8273 88.5719 25.8273C90.1909 25.8273 91.6177 26.0072 92.853 26.367C94.1097 26.7057 95.2604 27.2031 96.3041 27.8592V40.5585C96.3041 40.9606 96.2293 41.2252 96.0804 41.3521C95.9316 41.4792 95.633 41.5427 95.1855 41.5427H91.9269C91.6925 41.5427 91.5116 41.5109 91.3841 41.4473C91.2558 41.3628 91.1497 41.2357 91.0641 41.0663L90.6488 40.1141C90.031 40.7701 89.2856 41.2464 88.4123 41.5427C87.5603 41.8601 86.5164 42.0188 85.2809 42.0188ZM87.6774 37.701C88.508 37.701 89.1577 37.5 89.6262 37.098C90.0949 36.6958 90.3288 36.1243 90.3288 35.3834V30.4308C89.9246 30.2403 89.4133 30.1451 88.7956 30.1451C87.6666 30.1451 86.7614 30.5367 86.0798 31.3197C85.4194 32.1028 85.0893 33.2034 85.0893 34.6215C85.0893 36.6746 85.9519 37.701 87.6774 37.701Z" fill="#FFFFFF"/>
<path d="M100.751 41.5427C100.132 41.5427 99.6955 41.4156 99.4406 41.1617C99.1848 40.9077 99.0573 40.5055 99.0573 39.9553V27.2878C99.0573 26.9067 99.1206 26.6528 99.2489 26.5258C99.3978 26.3777 99.6955 26.3036 100.143 26.3036H103.434C103.689 26.3036 103.882 26.3458 104.009 26.4305C104.158 26.4941 104.244 26.621 104.265 26.8115L104.425 27.764C105.021 27.1714 105.798 26.7057 106.757 26.367C107.737 26.0072 108.823 25.8273 110.016 25.8273C111.741 25.8273 113.136 26.3141 114.201 27.2878C115.267 28.2402 115.799 29.6583 115.799 31.542V39.9553C115.799 40.5055 115.671 40.9077 115.415 41.1617C115.181 41.4156 114.755 41.5427 114.137 41.5427H111.038C110.421 41.5427 109.973 41.4156 109.697 41.1617C109.441 40.9077 109.314 40.5055 109.314 39.9553V31.9546C109.314 31.3197 109.175 30.8647 108.898 30.5895C108.621 30.3144 108.184 30.1768 107.588 30.1768C106.949 30.1768 106.437 30.3461 106.054 30.6847C105.692 31.0234 105.511 31.489 105.511 32.0818V39.9553C105.511 40.5055 105.383 40.9077 105.128 41.1617C104.894 41.4156 104.468 41.5427 103.85 41.5427H100.751Z" fill="#FFFFFF"/>
<path d="M127.092 42.0188C124.111 42.0188 121.811 41.3309 120.191 39.9552C118.572 38.5796 117.763 36.5794 117.763 33.9548C117.763 32.3464 118.136 30.9282 118.882 29.7006C119.627 28.473 120.703 27.5206 122.108 26.8433C123.535 26.166 125.218 25.8273 127.157 25.8273C128.626 25.8273 129.862 25.9649 130.863 26.24C131.885 26.5152 132.79 26.9385 133.578 27.51C133.813 27.6581 133.93 27.8486 133.93 28.0815C133.93 28.2507 133.845 28.473 133.675 28.7482L132.364 31.0022C132.216 31.2986 132.035 31.4468 131.822 31.4468C131.693 31.4468 131.491 31.3621 131.215 31.1927C130.639 30.833 130.096 30.5684 129.584 30.399C129.095 30.2297 128.477 30.1451 127.731 30.1451C126.666 30.1451 125.804 30.4837 125.144 31.161C124.505 31.8382 124.185 32.7695 124.185 33.9548C124.185 35.1613 124.516 36.0926 125.176 36.7486C125.836 37.3836 126.741 37.701 127.892 37.701C128.573 37.701 129.191 37.6059 129.745 37.4153C130.298 37.2249 130.863 36.9604 131.438 36.6217C131.736 36.4523 131.949 36.3677 132.077 36.3677C132.269 36.3677 132.439 36.5158 132.588 36.8122L134.026 39.2568C134.133 39.4684 134.185 39.6378 134.185 39.7647C134.185 39.9552 134.058 40.1351 133.802 40.3045C132.908 40.876 131.928 41.2991 130.863 41.5744C129.819 41.8707 128.562 42.0188 127.092 42.0188Z" fill="#FFFFFF"/>
<path d="M142.286 42.0188C140.285 42.0188 138.677 41.3838 137.463 40.1141C136.269 38.8228 135.673 37.0133 135.673 34.685C135.673 32.9072 136.078 31.3514 136.887 30.0181C137.718 28.6846 138.879 27.6581 140.369 26.9385C141.882 26.1977 143.618 25.8273 145.578 25.8273C147.197 25.8273 148.624 26.0072 149.859 26.367C151.116 26.7057 152.266 27.2031 153.31 27.8592V40.5585C153.31 40.9606 153.235 41.2252 153.086 41.3521C152.937 41.4792 152.639 41.5427 152.192 41.5427H148.933C148.699 41.5427 148.517 41.5109 148.389 41.4473C148.262 41.3628 148.155 41.2357 148.07 41.0663L147.655 40.1141C147.037 40.7701 146.291 41.2464 145.418 41.5427C144.566 41.8601 143.522 42.0188 142.286 42.0188ZM144.683 37.701C145.514 37.701 146.164 37.5 146.632 37.098C147.1 36.6958 147.335 36.1243 147.335 35.3834V30.4308C146.93 30.2403 146.419 30.1451 145.801 30.1451C144.672 30.1451 143.767 30.5367 143.085 31.3197C142.426 32.1028 142.095 33.2034 142.095 34.6215C142.095 36.6746 142.958 37.701 144.683 37.701Z" fill="#FFFFFF"/>
<path d="M173.38 40.3362C173.529 40.5056 173.603 40.6961 173.603 40.9077C173.603 41.0981 173.54 41.257 173.412 41.3839C173.284 41.4898 173.114 41.5427 172.901 41.5427H167.948C167.65 41.5427 167.427 41.5215 167.278 41.4792C167.149 41.4156 167.011 41.2992 166.862 41.13L162.516 35.2566V39.9553C162.516 40.5056 162.389 40.9077 162.133 41.1618C161.877 41.4156 161.441 41.5427 160.824 41.5427H157.724C157.106 41.5427 156.669 41.4156 156.415 41.1618C156.18 40.9077 156.062 40.5056 156.062 39.9553V21.5731C156.062 21.0228 156.191 20.6207 156.446 20.3667C156.701 20.0915 157.128 19.954 157.724 19.954H160.824C161.441 19.954 161.877 20.0915 162.133 20.3667C162.389 20.6207 162.516 21.0228 162.516 21.5731V32.2088L166.734 26.748C166.862 26.5788 167.001 26.4624 167.149 26.3988C167.299 26.3354 167.523 26.3036 167.821 26.3036H172.773C172.986 26.3036 173.146 26.3671 173.252 26.4941C173.38 26.5999 173.444 26.748 173.444 26.9386C173.444 27.1502 173.37 27.3407 173.22 27.51L167.756 33.7327L173.38 40.3362Z" fill="#FFFFFF"/>
<path d="M183.754 42.0188C181.966 42.0188 180.367 41.7225 178.962 41.13C177.578 40.5373 176.48 39.6483 175.671 38.4631C174.862 37.2779 174.457 35.8281 174.457 34.1136C174.457 31.4256 175.224 29.3725 176.758 27.9545C178.291 26.5364 180.496 25.8273 183.371 25.8273C186.183 25.8273 188.313 26.5258 189.761 27.9227C191.232 29.2985 191.966 31.214 191.966 33.6691C191.966 34.7274 191.497 35.2565 190.56 35.2565H180.528C180.528 36.1666 180.868 36.8652 181.55 37.3518C182.253 37.8387 183.307 38.082 184.713 38.082C185.586 38.082 186.311 38.008 186.886 37.8599C187.482 37.6905 188.079 37.4472 188.675 37.1297C188.93 37.0238 189.101 36.9709 189.186 36.9709C189.378 36.9709 189.537 37.098 189.666 37.3518L190.752 39.3837C190.858 39.5955 190.912 39.7542 190.912 39.8601C190.912 40.0504 190.784 40.2305 190.528 40.3996C189.655 40.9712 188.665 41.3838 187.557 41.6378C186.449 41.8919 185.181 42.0188 183.754 42.0188ZM186.214 32.1136C186.214 31.3091 185.981 30.6847 185.512 30.2403C185.043 29.7958 184.34 29.5736 183.403 29.5736C182.466 29.5736 181.753 29.8064 181.262 30.272C180.772 30.7166 180.528 31.3304 180.528 32.1136H186.214Z" fill="#FFFFFF"/>
<path d="M202.918 42.0182C201.128 42.0182 199.434 41.8384 197.837 41.4787C196.24 41.0975 194.951 40.5685 193.971 39.8912C193.609 39.6584 193.428 39.4149 193.428 39.1611C193.428 38.9917 193.492 38.8119 193.619 38.6212L195.185 36.145C195.356 35.891 195.526 35.7641 195.696 35.7641C195.803 35.7641 195.984 35.838 196.239 35.9862C197.028 36.4308 197.922 36.7905 198.924 37.0655C199.925 37.3408 200.915 37.4784 201.895 37.4784C202.896 37.4784 203.631 37.3303 204.099 37.0338C204.59 36.7375 204.834 36.2614 204.834 35.6052C204.834 34.9702 204.568 34.4728 204.035 34.1131C203.525 33.7532 202.555 33.2983 201.128 32.748C198.976 31.9437 197.293 31.0441 196.079 30.0493C194.887 29.0334 194.291 27.6576 194.291 25.922C194.291 23.8266 195.046 22.2286 196.559 21.128C198.072 20.0275 200.084 19.4772 202.598 19.4772C204.345 19.4772 205.836 19.6359 207.071 19.9534C208.328 20.2497 209.392 20.7154 210.265 21.3503C210.628 21.6255 210.809 21.8794 210.809 22.1122C210.809 22.2604 210.745 22.4297 210.618 22.6203L209.052 25.0966C208.86 25.3506 208.69 25.4775 208.541 25.4775C208.434 25.4775 208.253 25.4035 207.997 25.2553C206.762 24.451 205.292 24.0488 203.588 24.0488C202.672 24.0488 201.969 24.1971 201.479 24.4933C200.99 24.7897 200.745 25.2765 200.745 25.9537C200.745 26.4194 200.872 26.8004 201.128 27.0967C201.384 27.393 201.724 27.6576 202.15 27.8904C202.598 28.1021 203.279 28.3772 204.195 28.7159L204.802 28.9381C206.378 29.5519 207.614 30.1446 208.509 30.7161C209.424 31.2662 210.117 31.9541 210.585 32.7797C211.053 33.5838 211.288 34.5997 211.288 35.8275C211.288 37.7112 210.575 39.214 209.148 40.3356C207.741 41.4574 205.665 42.0182 202.918 42.0182Z" fill="#FFFFFF"/>
<path d="M218.077 41.5424C217.758 41.5424 217.513 41.4895 217.342 41.3836C217.171 41.2779 217.044 41.0661 216.958 40.7487L212.837 27.0335C212.794 26.9065 212.773 26.8113 212.773 26.7478C212.773 26.4515 212.986 26.3033 213.412 26.3033H217.629C217.907 26.3033 218.108 26.3562 218.236 26.462C218.365 26.5467 218.45 26.6948 218.491 26.9065L220.217 34.1134L222.39 28.3035C222.498 28.0494 222.603 27.8801 222.709 27.7955C222.837 27.6896 223.051 27.6368 223.35 27.6368H225.361C225.659 27.6368 225.862 27.6896 225.968 27.7955C226.097 27.8801 226.213 28.0494 226.321 28.3035L228.461 34.1134L230.219 26.9065C230.281 26.6948 230.366 26.5467 230.474 26.462C230.58 26.3562 230.773 26.3033 231.048 26.3033H235.299C235.724 26.3033 235.938 26.4515 235.938 26.7478C235.938 26.8113 235.916 26.9065 235.874 27.0335L231.72 40.7487C231.635 41.0661 231.506 41.2779 231.337 41.3836C231.187 41.4895 230.953 41.5424 230.634 41.5424H227.502C227.204 41.5424 226.98 41.4895 226.831 41.3836C226.681 41.2567 226.555 41.0451 226.447 40.7487L224.338 35.0022L222.23 40.7487C222.145 41.0451 222.016 41.2567 221.846 41.3836C221.697 41.4895 221.475 41.5424 221.177 41.5424H218.077Z" fill="#FFFFFF"/>
<path d="M244.036 42.0188C242.033 42.0188 240.426 41.3838 239.211 40.1141C238.019 38.8228 237.422 37.0133 237.422 34.685C237.422 32.9072 237.826 31.3514 238.637 30.0181C239.466 28.6846 240.628 27.6581 242.118 26.9385C243.632 26.1977 245.368 25.8273 247.327 25.8273C248.946 25.8273 250.372 26.0072 251.609 26.367C252.865 26.7057 254.016 27.2031 255.059 27.8592V40.5585C255.059 40.9606 254.984 41.2252 254.835 41.3521C254.685 41.4792 254.389 41.5427 253.941 41.5427H250.682C250.447 41.5427 250.267 41.5109 250.139 41.4473C250.01 41.3628 249.904 41.2357 249.819 41.0663L249.404 40.1141C248.787 40.7701 248.04 41.2464 247.167 41.5427C246.315 41.8601 245.272 42.0188 244.036 42.0188ZM246.434 37.701C247.263 37.701 247.913 37.5 248.382 37.098C248.851 36.6958 249.085 36.1243 249.085 35.3834V30.4308C248.679 30.2403 248.169 30.1451 247.55 30.1451C246.421 30.1451 245.517 30.5367 244.835 31.3197C244.175 32.1028 243.844 33.2034 243.844 34.6215C243.844 36.6746 244.708 37.701 246.434 37.701Z" fill="#FFFFFF"/>
<path d="M259.473 47.9558C258.855 47.9558 258.42 47.8289 258.162 47.5748C257.929 47.3208 257.812 46.9187 257.812 46.3684V28.1767C258.77 27.4994 259.975 26.9385 261.422 26.4941C262.871 26.0496 264.383 25.8273 265.959 25.8273C272.393 25.8273 275.609 28.5365 275.609 33.9548C275.609 36.4101 274.927 38.3677 273.564 39.8283C272.2 41.2886 270.273 42.0188 267.781 42.0188C267.079 42.0188 266.396 41.9341 265.735 41.7648C265.097 41.5956 264.564 41.3628 264.138 41.0663V46.3684C264.138 46.9187 264.01 47.3208 263.755 47.5748C263.499 47.8289 263.063 47.9558 262.444 47.9558H259.473ZM266.407 37.7328C267.323 37.7328 268.005 37.3943 268.451 36.7169C268.919 36.0184 269.154 35.0871 269.154 33.9231C269.154 32.5474 268.878 31.5842 268.325 31.0339C267.792 30.4626 266.96 30.1768 265.832 30.1768C265.106 30.1768 264.532 30.272 264.107 30.4626V35.5106C264.107 36.2302 264.309 36.7805 264.712 37.1615C265.119 37.5424 265.683 37.7328 266.407 37.7328Z" fill="#FFFFFF"/>
<path fill-rule="evenodd" clip-rule="evenodd" d="M30.2278 50.9191C24.1749 50.9145 19.2991 49.4713 15.8924 46.879C12.4447 44.2556 10.6158 40.5326 10.6158 36.32C10.6158 32.261 12.4407 29.3341 14.5057 27.3557C16.1239 25.8052 17.9096 24.8122 19.1531 24.2411C18.8719 23.3836 18.5211 22.2611 18.2072 21.1016C17.7872 19.5501 17.3752 17.7298 17.3752 16.3957C17.3752 14.8169 17.7217 13.2312 18.6558 11.9991C19.6426 10.6974 21.1283 10 22.9157 10C24.3126 10 25.4986 10.5149 26.427 11.4031C27.3145 12.2521 27.9052 13.3796 28.313 14.5549C29.0297 16.6203 29.3087 19.215 29.387 21.8044H31.099C31.1774 19.215 31.4563 16.6203 32.1731 14.5549C32.581 13.3796 33.1714 12.2521 34.0591 11.4031C34.9876 10.5149 36.1734 10 37.5703 10C39.3578 10 40.8434 10.6974 41.8304 11.9991C42.7645 13.2312 43.1109 14.8169 43.1109 16.3957C43.1109 17.7298 42.6987 19.5501 42.2789 21.1016C41.965 22.2611 41.6141 23.3836 41.3329 24.2411C42.5764 24.8122 44.3622 25.8052 45.9804 27.3557C48.0453 29.3341 49.8701 32.261 49.8701 36.32C49.8701 40.5326 48.0413 44.2556 44.5937 46.879C41.1869 49.4713 36.3111 50.9145 30.2581 50.9191H30.2278Z" fill="#633001"/>
<path d="M22.9156 11.5016C20.2977 11.5016 19.0926 13.462 19.0926 16.1733C19.0926 18.3283 20.4928 22.6443 21.0673 24.3244C21.1965 24.7023 20.9935 25.1163 20.6232 25.263C18.525 26.0934 12.3332 29.1339 12.3332 36.0976C12.3332 43.4328 18.6255 48.9637 30.229 48.9725C30.2337 48.9725 30.2383 48.9724 30.2429 48.9724C30.2475 48.9724 30.2521 48.9725 30.2567 48.9725C41.8602 48.9637 48.1524 43.4328 48.1524 36.0976C48.1524 29.1339 41.9607 26.0934 39.8626 25.263C39.4923 25.1163 39.2893 24.7023 39.4185 24.3244C39.993 22.6443 41.3932 18.3283 41.3932 16.1733C41.3932 13.462 40.1881 11.5016 37.5702 11.5016C33.8019 11.5016 32.8625 16.8598 32.7954 22.6105C32.7911 22.9944 32.4818 23.3059 32.0994 23.3059H28.3864C28.004 23.3059 27.6948 22.9944 27.6903 22.6105C27.6233 16.8598 26.684 11.5016 22.9156 11.5016Z" fill="#D1884F"/>
<path d="M30.2567 46.6225C21.7311 46.6225 12.348 42.0415 12.3332 36.1113C12.3332 36.1204 12.3332 36.1296 12.3332 36.1389C12.3332 43.4801 18.6356 49.014 30.2567 49.014C41.878 49.014 48.1803 43.4801 48.1803 36.1389C48.1803 36.1296 48.1803 36.1204 48.1803 36.1113C48.1655 42.0415 38.7823 46.6225 30.2567 46.6225Z" fill="#FEDC90"/>
<path d="M25.5197 34.2902C25.5197 36.2925 24.577 37.3352 23.4143 37.3352C22.2515 37.3352 21.3089 36.2925 21.3089 34.2902C21.3089 32.288 22.2515 31.2454 23.4143 31.2454C24.577 31.2454 25.5197 32.288 25.5197 34.2902Z" fill="#633001"/>
<path d="M39.2047 34.2902C39.2047 36.2925 38.2622 37.3352 37.0994 37.3352C35.9366 37.3352 34.994 36.2925 34.994 34.2902C34.994 32.288 35.9366 31.2454 37.0994 31.2454C38.2622 31.2454 39.2047 32.288 39.2047 34.2902Z" fill="#633001"/>
</g>
</svg>

<svg xmlns="http://www.w3.org/2000/svg" width="286" height="61" fill="none" viewBox="0 0 286 61"><mask id="a" width="266" height="41" x="10" y="10" maskUnits="userSpaceOnUse" style="mask-type:luminance"><path fill="#fff" d="M275.609 10H10v41h265.609z"/></mask><g mask="url(#a)"><path fill="#fff" d="M61.217 41.543q-.927 0-1.31-.381-.351-.38-.351-1.207V21.573q0-.825.383-1.206.382-.413 1.278-.413h7.828q4.473 0 6.582 1.873t2.108 5.588q0 3.683-2.108 5.556-2.078 1.84-6.582 1.841H66.01v5.143q0 .825-.384 1.207-.383.38-1.31.38zm7.317-11.334q1.31 0 2.013-.699.734-.698.734-2.095 0-1.43-.734-2.127-.704-.699-2.013-.699h-2.525v5.62zM85.28 42.019q-3.002 0-4.824-1.905-1.79-1.936-1.789-5.429 0-2.667 1.214-4.667 1.247-2 3.483-3.08 2.268-1.11 5.208-1.11 2.428 0 4.281.539 1.885.508 3.451 1.492v12.7q0 .603-.224.793-.223.19-.894.19h-3.26q-.35 0-.542-.095a.96.96 0 0 1-.32-.38l-.415-.953a5.4 5.4 0 0 1-2.237 1.429q-1.278.476-3.131.476m2.397-4.318q1.246 0 1.95-.603.702-.603.702-1.715v-4.952q-.607-.286-1.533-.286-1.695 0-2.716 1.175-.99 1.174-.99 3.301 0 3.08 2.587 3.08M100.751 41.543q-.929 0-1.31-.381-.384-.381-.384-1.207V27.288q0-.572.192-.762.224-.222.894-.222h3.291q.383 0 .575.127.224.095.256.38l.16.953q.894-.889 2.332-1.397 1.47-.54 3.259-.54 2.587 0 4.185 1.46 1.599 1.43 1.598 4.255v8.413q0 .825-.384 1.207-.351.38-1.278.38h-3.099q-.926 0-1.341-.38-.384-.381-.383-1.207v-8q0-.953-.416-1.365-.416-.414-1.31-.413-.959 0-1.534.508-.543.507-.543 1.397v7.873q0 .825-.383 1.207-.351.38-1.278.38zM127.092 42.019q-4.471 0-6.901-2.064-2.428-2.063-2.428-6 0-2.413 1.119-4.254 1.118-1.842 3.226-2.858 2.14-1.016 5.049-1.016 2.204 0 3.706.413a8.2 8.2 0 0 1 2.715 1.27q.352.222.352.571 0 .255-.255.667l-1.311 2.254q-.222.445-.542.445-.193 0-.607-.254a7.7 7.7 0 0 0-1.631-.794q-.734-.255-1.853-.254-1.597 0-2.587 1.016-.959 1.015-.959 2.794 0 1.81.991 2.794.99.952 2.716.952 1.022 0 1.853-.286a9.3 9.3 0 0 0 1.693-.793q.447-.255.639-.254.288 0 .511.444l1.438 2.445q.16.316.159.508 0 .285-.383.54a10.1 10.1 0 0 1-2.939 1.27q-1.566.444-3.771.444M142.286 42.019q-3.002 0-4.823-1.905-1.79-1.936-1.79-5.429 0-2.667 1.214-4.667 1.247-2 3.482-3.08 2.27-1.11 5.209-1.11 2.428 0 4.281.539 1.885.508 3.451 1.492v12.7q0 .603-.224.793t-.894.19h-3.259q-.351 0-.544-.095a.96.96 0 0 1-.319-.38l-.415-.953a5.4 5.4 0 0 1-2.237 1.429q-1.278.476-3.132.476m2.397-4.318q1.247 0 1.949-.603t.703-1.715v-4.952q-.607-.286-1.534-.286-1.693 0-2.716 1.175-.99 1.174-.99 3.301 0 3.08 2.588 3.08M173.38 40.336q.223.255.223.572 0 .285-.191.476-.192.159-.511.159h-4.953q-.447 0-.67-.064a1.4 1.4 0 0 1-.416-.349l-4.346-5.873v4.698q0 .825-.383 1.207-.384.38-1.309.38h-3.1q-.928 0-1.309-.38-.353-.38-.353-1.207V21.573q0-.825.384-1.206.383-.413 1.278-.413h3.1q.925 0 1.309.413.383.381.383 1.206V32.21l4.218-5.461q.192-.255.415-.35.225-.094.672-.094h4.952q.32 0 .479.19a.55.55 0 0 1 .192.445.84.84 0 0 1-.224.571l-5.464 6.223zM183.754 42.019q-2.683 0-4.792-.889-2.077-.89-3.291-2.667-1.214-1.778-1.214-4.35 0-4.03 2.301-6.158 2.3-2.128 6.613-2.128 4.218 0 6.39 2.096 2.206 2.064 2.205 5.746 0 1.587-1.406 1.588h-10.032q0 1.365 1.022 2.095 1.054.73 3.163.73 1.31 0 2.173-.222a9 9 0 0 0 1.789-.73q.383-.16.511-.16.287 0 .48.382l1.086 2.032q.16.318.16.476 0 .285-.384.54-1.31.857-2.971 1.238-1.662.38-3.803.38m2.46-9.905q0-1.208-.702-1.874-.704-.666-2.109-.666t-2.141.698q-.735.667-.734 1.842zM202.918 42.018q-2.685 0-5.081-.54-2.396-.57-3.866-1.587-.543-.35-.543-.73 0-.255.191-.54l1.566-2.476q.256-.38.511-.38.16 0 .543.221 1.183.668 2.685 1.08 1.501.412 2.971.412 1.502 0 2.204-.444.736-.445.735-1.429 0-.952-.799-1.492-.766-.54-2.907-1.365-3.228-1.206-5.049-2.699-1.788-1.524-1.788-4.127 0-3.142 2.268-4.794 2.269-1.65 6.039-1.65 2.62 0 4.473.475 1.885.445 3.194 1.397.544.413.544.762 0 .223-.191.508l-1.566 2.477q-.288.38-.511.38-.16 0-.544-.222-1.853-1.206-4.409-1.206-1.374 0-2.109.444-.734.446-.734 1.46 0 .699.383 1.144.384.444 1.022.793.672.318 2.045.826l.607.222q2.364.921 3.707 1.778 1.373.825 2.076 2.064.702 1.206.703 3.047 0 2.826-2.14 4.509-2.11 1.682-6.23 1.682M218.077 41.542q-.478 0-.735-.158-.256-.16-.384-.635l-4.121-13.716a1 1 0 0 1-.064-.285q0-.445.639-.445h4.217q.416 0 .607.159.193.127.255.445l1.726 7.206 2.173-5.81q.161-.38.319-.508.192-.158.641-.158h2.011q.448 0 .607.159.192.126.353.508l2.14 5.81 1.758-7.207q.093-.318.255-.445.16-.159.574-.159h4.251q.638 0 .639.445 0 .095-.064.285L231.72 40.75q-.129.476-.383.635-.225.158-.703.158h-3.132q-.447 0-.671-.158-.224-.19-.384-.635l-2.109-5.747-2.108 5.747q-.128.444-.384.635-.223.158-.669.158zM244.036 42.019q-3.003 0-4.825-1.905-1.788-1.936-1.789-5.429 0-2.667 1.215-4.667 1.245-2 3.481-3.08 2.27-1.11 5.209-1.11 2.427 0 4.282.539 1.885.508 3.45 1.492v12.7q0 .603-.224.793t-.894.19h-3.259q-.352 0-.543-.095a.95.95 0 0 1-.32-.38l-.415-.953a5.4 5.4 0 0 1-2.237 1.429q-1.278.476-3.131.476m2.398-4.318q1.244 0 1.948-.603.703-.603.703-1.715v-4.952q-.608-.286-1.535-.286-1.693 0-2.715 1.175-.99 1.174-.991 3.301 0 3.08 2.59 3.08M259.473 47.956q-.925 0-1.311-.381-.35-.38-.35-1.207V28.177q1.438-1.016 3.61-1.683a15.4 15.4 0 0 1 4.537-.667q9.65 0 9.65 8.128 0 3.683-2.045 5.873t-5.783 2.19a8.2 8.2 0 0 1-2.046-.253q-.957-.254-1.597-.699v5.302q0 .825-.383 1.207-.383.38-1.311.38zm6.934-10.223q1.375 0 2.044-1.016.702-1.048.703-2.794 0-2.064-.829-2.89-.8-.855-2.493-.856-1.088 0-1.725.286v5.048q0 1.08.605 1.65.61.572 1.695.572"/><path fill="#633001" fill-rule="evenodd" d="M30.228 50.92c-6.053-.006-10.929-1.449-14.336-4.041-3.447-2.623-5.276-6.346-5.276-10.559 0-4.059 1.825-6.986 3.89-8.964 1.618-1.55 3.404-2.544 4.647-3.115a64 64 0 0 1-.946-3.14c-.42-1.55-.832-3.371-.832-4.705 0-1.58.347-3.165 1.28-4.397.988-1.302 2.473-1.999 4.26-1.999 1.398 0 2.584.515 3.512 1.403.887.85 1.478 1.977 1.886 3.152.717 2.065.996 4.66 1.074 7.25h1.712c.078-2.59.357-5.185 1.074-7.25.408-1.175.998-2.303 1.886-3.152A4.96 4.96 0 0 1 37.57 10c1.788 0 3.273.697 4.26 2 .934 1.231 1.28 2.817 1.28 4.396 0 1.334-.411 3.154-.831 4.706a64 64 0 0 1-.946 3.14c1.243.57 3.03 1.563 4.647 3.114 2.065 1.978 3.89 4.905 3.89 8.964 0 4.213-1.829 7.936-5.276 10.559-3.407 2.592-8.283 4.035-14.336 4.04z" clip-rule="evenodd"/><path fill="#d1884f" d="M22.916 11.502c-2.618 0-3.823 1.96-3.823 4.671 0 2.155 1.4 6.471 1.974 8.151a.756.756 0 0 1-.444.939c-2.098.83-8.29 3.87-8.29 10.835 0 7.335 6.292 12.866 17.896 12.874h.028c11.603-.008 17.895-5.54 17.895-12.874 0-6.964-6.191-10.005-8.29-10.835a.756.756 0 0 1-.444-.939c.575-1.68 1.975-5.996 1.975-8.15 0-2.712-1.205-4.672-3.823-4.672-3.768 0-4.708 5.358-4.775 11.108a.7.7 0 0 1-.696.696h-3.713a.7.7 0 0 1-.696-.696c-.067-5.75-1.006-11.108-4.774-11.108"/><path fill="#fedc90" d="M30.257 46.623c-8.526 0-17.909-4.581-17.924-10.512v.028c0 7.341 6.303 12.875 17.924 12.875S48.18 43.48 48.18 36.139v-.028c-.014 5.93-9.398 10.512-17.923 10.512"/><path fill="#633001" d="M25.52 34.29c0 2.002-.943 3.045-2.106 3.045s-2.105-1.043-2.105-3.045.942-3.045 2.105-3.045 2.106 1.043 2.106 3.045M39.205 34.29c0 2.002-.943 3.045-2.106 3.045s-2.105-1.043-2.105-3.045.943-3.045 2.105-3.045c1.163 0 2.106 1.043 2.106 3.045"/></g></svg>
